X: 23
M: 6/8
L: 1/8
K: D
dfa dfa | dcd ecA | dfa efg | fdd d2 ::\
f/g/ |\
aba gag | fdf ecA | aba geg | fdd d2 :|


